X: 9304
T: Dances At Kinvara, The
R: barndance
M: 4/4
K: Gmajor
|:(3DEF|.G2 B2 BG Bd|c2 D2 F4|FG AB cd ef|gb af gd Bd|
.B2 G2 GB dB|A2 D2 F4|FG AB (3cBA FA|.G2 GF G2:|
|:z2|BA B2 cB ce|d2 b2 b2 (3efg|ag fe dc BA|.G2 g2 g2gg|
g2 dB e2 cA|d2 BG E2 AG|FG AB (3cBA FA|.G2 GF G2:|

